X: 1
T: Bay Tree, The
C: Andy Cutting
M: 3/4
L: 1/8
R: waltz
K: G Major
|: GA |
B3 B AB | d3 d BA | AG FG Ad | BA AA GA |
B3 B AB | d3 d BA | AG FG AB | D3 D :| 
|: D2 |
B2 GD GB | c2 EG ce | d2 FA dg | e3 d- dc |
B2 GD GB | c2 EG ce | d2 FA dg | e2 dd- dc :|
